src/assets/images/about/svg/battery.svg

<svg width="140" height="140" viewBox="0 0 140 140" fill="none" xmlns="http://www.w3.org/2000/svg">
<path d="M84 13V4C84 2.89543 83.1046 2 82 2H58C56.8954 2 56 2.89543 56 4V13" stroke="url(#paint0_linear_149_65)" stroke-width="3"/>
<rect x="35.5" y="11.5" width="69" height="127" rx="5.5" stroke="url(#paint1_linear_149_65)" stroke-width="3"/>
<line x1="34" y1="106.5" x2="106" y2="106.5" stroke="url(#paint2_linear_149_65)" stroke-width="3"/>
<path d="M42.635 77.956C45.0057 76.052 46.863 74.4933 48.207 73.28C49.551 72.048 50.6804 70.7693 51.595 69.444C52.5284 68.1 52.995 66.784 52.995 65.496C52.995 64.2827 52.6964 63.3307 52.099 62.64C51.5204 61.9307 50.5777 61.576 49.271 61.576C48.0017 61.576 47.0124 61.9773 46.303 62.78C45.6124 63.564 45.239 64.6187 45.183 65.944H42.719C42.7937 63.8533 43.4284 62.2387 44.623 61.1C45.8177 59.9613 47.3577 59.392 49.243 59.392C51.1657 59.392 52.687 59.924 53.807 60.988C54.9457 62.052 55.515 63.5173 55.515 65.384C55.515 66.9333 55.0484 68.4453 54.115 69.92C53.2004 71.376 52.155 72.664 50.979 73.784C49.803 74.8853 48.3004 76.1733 46.471 77.648H56.103V79.776H42.635V77.956ZM58.7405 77.956C61.1112 76.052 62.9685 74.4933 64.3125 73.28C65.6565 72.048 66.7858 70.7693 67.7005 69.444C68.6338 68.1 69.1005 66.784 69.1005 65.496C69.1005 64.2827 68.8018 63.3307 68.2045 62.64C67.6258 61.9307 66.6832 61.576 65.3765 61.576C64.1072 61.576 63.1178 61.9773 62.4085 62.78C61.7178 63.564 61.3445 64.6187 61.2885 65.944H58.8245C58.8992 63.8533 59.5338 62.2387 60.7285 61.1C61.9232 59.9613 63.4632 59.392 65.3485 59.392C67.2712 59.392 68.7925 59.924 69.9125 60.988C71.0512 62.052 71.6205 63.5173 71.6205 65.384C71.6205 66.9333 71.1538 68.4453 70.2205 69.92C69.3058 71.376 68.2605 72.664 67.0845 73.784C65.9085 74.8853 64.4058 76.1733 62.5765 77.648H72.2085V79.776H58.7405V77.956ZM90.6548 64.376C91.8121 64.376 92.8575 64.628 93.7908 65.132C94.7241 65.6173 95.4521 66.3547 95.9748 67.344C96.5161 68.3333 96.7868 69.5373 96.7868 70.956V80H94.2668V71.32C94.2668 69.7893 93.8841 68.6227 93.1188 67.82C92.3535 66.9987 91.3081 66.588 89.9828 66.588C88.6388 66.588 87.5655 67.008 86.7628 67.848C85.9788 68.688 85.5868 69.9107 85.5868 71.516V80H83.0388V59.28H85.5868V66.84C86.0908 66.056 86.7815 65.4493 87.6588 65.02C88.5548 64.5907 89.5535 64.376 90.6548 64.376Z" fill="url(#paint3_linear_149_65)"/>
<defs>
<linearGradient id="paint0_linear_149_65" x1="50.8" y1="15.8427" x2="82.9406" y2="-2.4562" gradientUnits="userSpaceOnUse">
<stop stop-color="#48C8FF"/>
<stop offset="1" stop-color="#FF5BCB"/>
</linearGradient>
<linearGradient id="paint1_linear_149_65" x1="20.6285" y1="173.595" x2="128.412" y2="160.243" gradientUnits="userSpaceOnUse">
<stop stop-color="#48C8FF"/>
<stop offset="1" stop-color="#FF5BCB"/>
</linearGradient>
<linearGradient id="paint2_linear_149_65" x1="20.6285" y1="109.258" x2="21.0489" y2="102.489" gradientUnits="userSpaceOnUse">
<stop stop-color="#48C8FF"/>
<stop offset="1" stop-color="#FF5BCB"/>
</linearGradient>
<linearGradient id="paint3_linear_149_65" x1="30.2285" y1="101.854" x2="110.708" y2="76.9957" gradientUnits="userSpaceOnUse">
<stop stop-color="#48C8FF"/>
<stop offset="1" stop-color="#FF5BCB"/>
</linearGradient>
</defs>
</svg>

<svg xmlns="http://www.w3.org/2000/svg" width="140" height="140" fill="none"><path stroke="url(#a)" stroke-width="3" d="M84 13V4a2 2 0 0 0-2-2H58a2 2 0 0 0-2 2v9"/><rect width="69" height="127" x="35.5" y="11.5" stroke="url(#b)" stroke-width="3" rx="5.5"/><path stroke="url(#c)" stroke-width="3" d="M34 106.5h72"/><path fill="url(#d)" d="M42.635 77.956c2.37-1.904 4.228-3.463 5.572-4.676 1.344-1.232 2.473-2.51 3.388-3.836.933-1.344 1.4-2.66 1.4-3.948 0-1.213-.299-2.165-.896-2.856-.579-.71-1.521-1.064-2.828-1.064-1.27 0-2.259.401-2.968 1.204-.69.784-1.064 1.839-1.12 3.164h-2.464c.075-2.09.71-3.705 1.904-4.844 1.195-1.139 2.735-1.708 4.62-1.708 1.923 0 3.444.532 4.564 1.596 1.139 1.064 1.708 2.53 1.708 4.396 0 1.55-.467 3.061-1.4 4.536a19.98 19.98 0 0 1-3.136 3.864c-1.176 1.101-2.679 2.39-4.508 3.864h9.632v2.128H42.635v-1.82Zm16.105 0c2.371-1.904 4.228-3.463 5.572-4.676 1.344-1.232 2.474-2.51 3.389-3.836.933-1.344 1.4-2.66 1.4-3.948 0-1.213-.3-2.165-.897-2.856-.578-.71-1.52-1.064-2.828-1.064-1.269 0-2.258.401-2.968 1.204-.69.784-1.064 1.839-1.12 3.164h-2.463c.074-2.09.709-3.705 1.903-4.844 1.195-1.139 2.735-1.708 4.62-1.708 1.923 0 3.445.532 4.564 1.596 1.14 1.064 1.709 2.53 1.709 4.396 0 1.55-.467 3.061-1.4 4.536a19.983 19.983 0 0 1-3.136 3.864c-1.176 1.101-2.68 2.39-4.508 3.864h9.632v2.128H58.74v-1.82Zm31.915-13.58c1.157 0 2.203.252 3.136.756.933.485 1.661 1.223 2.184 2.212.541.99.812 2.193.812 3.612V80h-2.52v-8.68c0-1.53-.383-2.697-1.148-3.5-.766-.821-1.81-1.232-3.136-1.232-1.344 0-2.418.42-3.22 1.26-.784.84-1.176 2.063-1.176 3.668V80h-2.548V59.28h2.548v7.56a5.039 5.039 0 0 1 2.072-1.82c.896-.43 1.894-.644 2.996-.644Z"/><defs><linearGradient id="a" x1="50.8" x2="82.941" y1="15.843" y2="-2.456" gradientUnits="userSpaceOnUse"><stop stop-color="#48C8FF"/><stop offset="1" stop-color="#FF5BCB"/></linearGradient><linearGradient id="b" x1="20.628" x2="128.412" y1="173.595" y2="160.243" gradientUnits="userSpaceOnUse"><stop stop-color="#48C8FF"/><stop offset="1" stop-color="#FF5BCB"/></linearGradient><linearGradient id="c" x1="20.628" x2="21.049" y1="109.258" y2="102.489" gradientUnits="userSpaceOnUse"><stop stop-color="#48C8FF"/><stop offset="1" stop-color="#FF5BCB"/></linearGradient><linearGradient id="d" x1="30.229" x2="110.708" y1="101.854" y2="76.996" gradientUnits="userSpaceOnUse"><stop stop-color="#48C8FF"/><stop offset="1" stop-color="#FF5BCB"/></linearGradient></defs></svg>
